!!!!SEGMENT:19Daisyo_c.krn
!!!OTL:大小
!!!OPR:Eiga Banso Kyokusyu,jidai-geki,zenpen
!!!YOY:1929
!!!ONB:Rantou,Genya
**kern
*clefG2
*k[]
*C:
*M2/4
=1
8ggL
8ff#XJ
8eeL
8ccJ
=2
16bLL
16cc
16cc
16ccJJ
16ccLL
16ccJJ
8r
=3
8ccL
8bJ
8aL
8fJ
=4
16BLL
16a
16a
16aJJ
16aLL
16a
16a
16aJJ
=5
16bLL
16a
16b
16aJJ
16bLL
16a
16b
16aJJ
=6
8BL
16ffL
16ffJJ
16ffLL
16ee
16ee
16ddJJ
=7
8ee
16ggLL
16ggJJ
16aaLL
16gg
16aa
16ggJJ
=8
8aaL
8aa
8aaJ
8r
=9
16aaLL
16bb
16ccc
16bbJJ
16cccLL
16eee
16ccc
16bbJJ
=10
16aaLL
16aa
16aa
16aaJJ
16bbLL
16aaJ
8ffJ
=11
16eeLL
16ee
16ee
16eeJJ
16ff#XLL
16eeJ
8ccJ
=12
16eeLL
16ee
16b
16bJJ
16aLL
16a
16b
16bJJ
=13
16eeLL
16ee
16b
16bJJ
16aLL
16a
16b
16bJJ
=14
16eeLL
16ee
16b
16bJJ
16eeLL
16ee
16b
16bJJ
=15
16eLL
16dd
16e
16ddJJ
16eLL
16eeJJ
8r
==
*-
!!!ENC: Yukiko Yoden
!!!END: 2023/06/11
